icons/glyphs/glyph-computer.svg

<?xml version="1.0" encoding="UTF-8" standalone="no"?><svg height="22" viewBox="0 0 22 22" width="22" xmlns="http://www.w3.org/2000/svg"><sodipodi:namedview/><metadata><rdf:RDF><cc:Work><dc:format>image/svg+xml</dc:format><dc:type/><dc:title/></cc:Work></rdf:RDF></metadata><g transform="translate(-.552734 -4.387305)"><path d="m3.7531333 8.0473879h15.7641057c.468533 0 .845727.3771941.845727.8457268v9.5250903c0 .468532-.377194.845726-.845727.845726h-15.7641057c-.468532 0-.845726-.377194-.845726-.845726v-9.5250903c0-.4685327.377194-.8457268.845726-.8457268z" fill="#fff" opacity=".384615" stroke-linecap="square" stroke-width="1.543"/><path d="m1.2675781 2.8144531c-.70257298 0-1.26757811.5669582-1.2675781 1.2695313v13.0312496c0 .702573.56500512 1.269532 1.2675781 1.269532h6.2382813v1.515625h-1.71875c-.5818105 0-1.0488281.467017-1.0488282 1.048828 0 .58181.4670177 1.050781 1.0488282 1.050781h10.4257816c.581811 0 1.048828-.468971 1.048828-1.050781 0-.581811-.467017-1.048828-1.048828-1.048828h-1.71875v-1.515625h6.236328c.702573 0 1.269531-.566959 1.269531-1.269532v-13.0312496c0-.7025731-.566958-1.2695313-1.269531-1.2695313zm1.9335938 2.2519531h15.7636721c.468533 0 .845703.3771705.845703.8457032v9.5253906c0 .468532-.37717.845703-.845703.845703h-15.7636721c-.468532 0-.8457032-.377171-.8457031-.845703v-9.5253906c0-.4685327.3771712-.8457031.8457031-.8457032z" fill="#fff" stroke-linecap="square" stroke-width="1.491364" transform="translate(.552734 2.980078)"/></g></svg>

<?xml version="1.0" encoding="UTF-8" standalone="no"?>
<!-- Created with Inkscape (http://www.inkscape.org/) -->

<svg
   xmlns:dc="http://purl.org/dc/elements/1.1/"
   xmlns:cc="http://creativecommons.org/ns#"
   xmlns:rdf="http://www.w3.org/1999/02/22-rdf-syntax-ns#"
   xmlns:svg="http://www.w3.org/2000/svg"
   xmlns="http://www.w3.org/2000/svg"
   xmlns:sodipodi="http://sodipodi.sourceforge.net/DTD/sodipodi-0.dtd"
   xmlns:inkscape="http://www.inkscape.org/namespaces/inkscape"
   width="22"
   height="22"
   viewBox="0 0 22 22"
   version="1.1"
   id="svg8"
   inkscape:version="0.92+devel 15719 custom"
   sodipodi:docname="glyph-computer.svg">
  <defs
     id="ol-defs">
    <style
       id="current-color-scheme">      .ColorScheme-Text {
        color:#d0d0d0;
        stop-color:#d0d0d0;
      }
      .ColorScheme-Background {
        color:#212121;
        stop-color:#212121;
      }
      .ColorScheme-Highlight {
        color:#0039a9;
        stop-color:#0039a9;
      }
      .ColorScheme-ViewText {
        color:#d0d0d0;
        stop-color:#d0d0d0;
      }
      .ColorScheme-ViewBackground {
        color:#19191b;
        stop-color:#19191b;
      }
      .ColorScheme-ViewHover {
        color:#005cc7;
        stop-color:#005cc7;
      }
      .ColorScheme-ViewFocus{
        color:#002466;
        stop-color:#002466;
      }
      .ColorScheme-ButtonText {
        color:#d0d0d0;
        stop-color:#d0d0d0;
      }
      .ColorScheme-ButtonBackground {
        color:#232323;
        stop-color:#232323;                             
      }                                                 
      .ColorScheme-ButtonHover {                        
        color:#005cc7;                                  
        stop-color:#005cc7;                             
      }                                                 
      .ColorScheme-ButtonFocus{                         
        color:#0039a9;                                  
        stop-color:#0039a9;                             
      }</style>
  </defs>
  <sodipodi:namedview
     id="base"
     pagecolor="#002266"
     bordercolor="#ffffff"
     borderopacity="0.46666667"
     inkscape:pageopacity="0"
     inkscape:pageshadow="2"
     inkscape:zoom="13.081476"
     inkscape:cx="16.621911"
     inkscape:cy="12.794693"
     inkscape:document-units="px"
     inkscape:current-layer="svg8"
     inkscape:document-rotation="0"
     showgrid="false"
     inkscape:showpageshadow="false"
     borderlayer="true"
     units="px"
     fit-margin-top="0"
     fit-margin-left="0"
     fit-margin-right="0"
     fit-margin-bottom="0"
     inkscape:window-width="1920"
     inkscape:window-height="1051"
     inkscape:window-x="0"
     inkscape:window-y="0"
     inkscape:window-maximized="1" />
  <metadata
     id="metadata5">
    <rdf:RDF>
      <cc:Work
         rdf:about="">
        <dc:format>image/svg+xml</dc:format>
        <dc:type
           rdf:resource="http://purl.org/dc/dcmitype/StillImage" />
        <dc:title></dc:title>
      </cc:Work>
    </rdf:RDF>
  </metadata>
  <g
     id="g4292"
     inkscape:label="#"
     transform="translate(-0.55273419,-4.3873045)">
    <path
       inkscape:connector-curvature="0"
       id="rect4284"
       d="M 3.7531333,8.0473879 H 19.517239 c 0.468533,0 0.845727,0.3771941 0.845727,0.8457268 v 9.5250903 c 0,0.468532 -0.377194,0.845726 -0.845727,0.845726 H 3.7531333 c -0.468532,0 -0.845726,-0.377194 -0.845726,-0.845726 V 8.8931147 c 0,-0.4685327 0.377194,-0.8457268 0.845726,-0.8457268 z"
       style="opacity:0.38461537;vector-effect:none;fill:#ffffff;stroke-width:1.54299998;stroke-linecap:square"
       inkscape:label="#2" />
    <path
       style="opacity:1;vector-effect:none;fill:#ffffff;stroke-width:1.49136364;stroke-linecap:square"
       d="M 1.2675781,2.8144531 C 0.56500512,2.8144531 -1e-8,3.3814113 0,4.0839844 V 17.115234 c 0,0.702573 0.56500512,1.269532 1.2675781,1.269532 h 6.2382813 v 1.515625 h -1.71875 c -0.5818105,0 -1.0488281,0.467017 -1.0488282,1.048828 C 4.7382812,21.531029 5.2052989,22 5.7871094,22 H 16.212891 c 0.581811,0 1.048828,-0.468971 1.048828,-1.050781 0,-0.581811 -0.467017,-1.048828 -1.048828,-1.048828 h -1.71875 v -1.515625 h 6.236328 C 21.433042,18.384766 22,17.817807 22,17.115234 V 4.0839844 C 22,3.3814113 21.433042,2.8144531 20.730469,2.8144531 Z M 3.2011719,5.0664062 H 18.964844 c 0.468533,0 0.845703,0.3771705 0.845703,0.8457032 V 15.4375 c 0,0.468532 -0.37717,0.845703 -0.845703,0.845703 H 3.2011719 c -0.468532,0 -0.8457032,-0.377171 -0.8457031,-0.845703 V 5.9121094 c 0,-0.4685327 0.3771712,-0.8457031 0.8457031,-0.8457032 z"
       transform="translate(0.55273419,2.9800779)"
       id="rect4264"
       inkscape:connector-curvature="0"
       inkscape:label="#1" />
  </g>
</svg>
